svg/logo/xbox_line.svg

<?xml version="1.0" encoding="UTF-8"?>
<svg width="24px" height="24px" viewBox="0 0 24 24" version="1.1" xmlns="http://www.w3.org/2000/svg" xmlns:xlink="http://www.w3.org/1999/xlink">
    <title>xbox_line</title>
    <g id="Icon" stroke="none" stroke-width="1" fill="none" fill-rule="evenodd">
        <g id="Logo" transform="translate(-576.000000, -192.000000)">
            <g id="xbox_line" transform="translate(576.000000, 192.000000)">
                <path d="M24,0 L24,24 L0,24 L0,0 L24,0 Z M12.5935,23.2578 L12.5819,23.2595 L12.5109,23.295 L12.4919,23.2987 L12.4767,23.295 L12.4057,23.2595 C12.3958,23.2564 12.387,23.259 12.3821,23.2649 L12.378,23.2758 L12.3609,23.7031 L12.3659,23.7235 L12.3769,23.7357 L12.4805,23.8097 L12.4953,23.8136 L12.5071,23.8097 L12.6107,23.7357 L12.6233,23.7197 L12.6267,23.7031 L12.6096,23.2758 C12.6076,23.2657 12.601,23.2593 12.5935,23.2578 Z M12.8584,23.1453 L12.8445,23.1473 L12.6598,23.2397 L12.6499,23.2499 L12.6472,23.2611 L12.6651,23.6906 L12.6699,23.7034 L12.6784,23.7105 L12.8793,23.8032 C12.8914,23.8069 12.9022,23.803 12.9078,23.7952 L12.9118,23.7812 L12.8777,23.1665 C12.8753,23.1546 12.8674,23.147 12.8584,23.1453 Z M12.143,23.1473 C12.1332,23.1424 12.1222,23.1453 12.1156,23.1526 L12.1099,23.1665 L12.0758,23.7812 C12.0751,23.7927 12.0828,23.8019 12.0926,23.8046 L12.1083,23.8032 L12.3092,23.7105 L12.3186,23.7024 L12.3225,23.6906 L12.3404,23.2611 L12.3372,23.2485 L12.3278,23.2397 L12.143,23.1473 Z" id="MingCute" fill-rule="nonzero"></path>
                <path d="M12,2 C17.5228,2 22,6.47715 22,12 C22,17.5228 17.5228,22 12,22 C6.47715,22 2,17.5228 2,12 C2,6.47715 6.47715,2 12,2 Z M12,9.23487 C9.58562,11.6813 7.76341,14.4785 6.23339,17.5449 C7.68891,19.0583 9.73448,20 12,20 C14.2655,20 16.3111,19.0583 17.7666,17.5449 C16.2366,14.4785 14.4144,11.6813 12,9.23487 Z M7.3575,5.48408 C5.32507,6.93475 4,9.31263 4,12 C4,13.3454 4.33212,14.6133 4.91885,15.726 C6.42147,12.8779 8.21866,10.2274 10.5418,7.86511 C9.57205,7.02115 8.51551,6.22615 7.3575,5.48408 Z M16.6425,5.4841 C15.4845,6.22616 14.428,7.02116 13.4583,7.86511 C15.7814,10.2274 17.5786,12.8779 19.0812,15.726 C19.6679,14.6132 20,13.3454 20,12 C20,9.31264 18.6749,6.93477 16.6425,5.4841 Z M12,4 C11.0856,4 10.207,4.15341 9.38861,4.43591 C10.3221,5.08542 11.1901,5.76895 12,6.48355 C12.8099,5.76895 13.6779,5.08543 14.6114,4.43592 C13.793,4.15342 12.9144,4 12,4 Z" id="形状" fill="#09244B"></path>
            </g>
        </g>
    </g>
</svg>

<svg xmlns="http://www.w3.org/2000/svg" width="24" height="24"><g fill="none" fill-rule="evenodd"><path d="M24 0v24H0V0h24ZM12.594 23.258l-.012.002-.071.035-.02.004-.014-.004-.071-.036c-.01-.003-.019 0-.024.006l-.004.01-.017.428.005.02.01.013.104.074.015.004.012-.004.104-.074.012-.016.004-.017-.017-.427c-.002-.01-.009-.017-.016-.018Zm.264-.113-.014.002-.184.093-.01.01-.003.011.018.43.005.012.008.008.201.092c.012.004.023 0 .029-.008l.004-.014-.034-.614c-.003-.012-.01-.02-.02-.022Zm-.715.002a.023.023 0 0 0-.027.006l-.006.014-.034.614c0 .012.007.02.017.024l.015-.002.201-.093.01-.008.003-.011.018-.43-.003-.012-.01-.01-.184-.092Z"/><path fill="#09244B" d="M12 2c5.523 0 10 4.477 10 10s-4.477 10-10 10S2 17.523 2 12 6.477 2 12 2Zm0 7.235c-2.414 2.446-4.237 5.244-5.767 8.31A7.977 7.977 0 0 0 12 20a7.977 7.977 0 0 0 5.767-2.455c-1.53-3.067-3.353-5.864-5.767-8.31Zm-4.642-3.75A7.99 7.99 0 0 0 4 12c0 1.345.332 2.613.919 3.726 1.502-2.848 3.3-5.499 5.623-7.86a27.145 27.145 0 0 0-3.184-2.382Zm9.284 0a27.14 27.14 0 0 0-3.184 2.38c2.323 2.362 4.12 5.013 5.623 7.861A7.966 7.966 0 0 0 20 12a7.99 7.99 0 0 0-3.358-6.516ZM12 4c-.914 0-1.793.153-2.611.436.933.65 1.801 1.333 2.611 2.048a28.812 28.812 0 0 1 2.611-2.048A7.989 7.989 0 0 0 12 4Z"/></g></svg>
